!!!OTL: Leezie Lindsay
!!!ARE: Scotland
!!!AMD: Pentatonic
**kern
*clefG2
*k[b-]
*M3/4
*MM112
{8c/L
8d/J
=1
4.f/
8g/
4a/
=2
4a/
4ff\
8cc\L
8a\J
=3
4g/
4f/}
{8c/L
8d/J
=4
4.f/
8g/
4a/
=5
4cc\
4a/
4cc\
=6
2dd\}
{8.dd\L
16ff\Jk
=7
4.f/
8g/
4a/
=8
4cc\
4a/
8.g/L
16f/Jk
=9
4g/
4a/}
{4cc\
=10
4dd\
4.ff\
8dd\
=11
4cc\
4a/
(8.g/L
16f/Jk)
=12
2f/}
==
*-
